Newaita-dark/apps/24/kjumpingcube.svg

<?xml version="1.0" encoding="UTF-8"?>
<svg xmlns="http://www.w3.org/2000/svg" xmlns:xlink="http://www.w3.org/1999/xlink" width="24pt" height="24pt" viewBox="0 0 24 24" version="1.1">
<defs>
<radialGradient id="radial0" gradientUnits="userSpaceOnUse" cx="450.908936" cy="189.579361" fx="450.908936" fy="189.579361" r="21.166656" gradientTransform="matrix(0.000000130628,-0.0585994,-0.105479,-0.0000000761539,31.655869,47.696499)">
<stop offset="0" style="stop-color:rgb(0%,0%,0%);stop-opacity:0.313725;"/>
<stop offset="0.222222" style="stop-color:rgb(0%,0%,0%);stop-opacity:0.27451;"/>
<stop offset="1" style="stop-color:rgb(0%,0%,0%);stop-opacity:0;"/>
</radialGradient>
<radialGradient id="radial1" gradientUnits="userSpaceOnUse" cx="450.908936" cy="189.579361" fx="450.908936" fy="189.579361" r="21.166656" gradientTransform="matrix(-0.000000130628,0.0585994,0.105479,0.0000000761539,-7.841093,-5.645609)">
<stop offset="0" style="stop-color:rgb(0%,0%,0%);stop-opacity:0.313725;"/>
<stop offset="0.222222" style="stop-color:rgb(0%,0%,0%);stop-opacity:0.27451;"/>
<stop offset="1" style="stop-color:rgb(0%,0%,0%);stop-opacity:0;"/>
</radialGradient>
<radialGradient id="radial2" gradientUnits="userSpaceOnUse" cx="450.908936" cy="189.579361" fx="450.908936" fy="189.579361" r="21.166656" gradientTransform="matrix(-0.000000130628,-0.0585994,0.105479,-0.0000000761539,-7.841093,47.696499)">
<stop offset="0" style="stop-color:rgb(0%,0%,0%);stop-opacity:0.313725;"/>
<stop offset="0.222222" style="stop-color:rgb(0%,0%,0%);stop-opacity:0.27451;"/>
<stop offset="1" style="stop-color:rgb(0%,0%,0%);stop-opacity:0;"/>
</radialGradient>
<radialGradient id="radial3" gradientUnits="userSpaceOnUse" cx="450.908936" cy="189.579361" fx="450.908936" fy="189.579361" r="21.166656" gradientTransform="matrix(0.000000130628,0.0585994,-0.105479,0.0000000761539,31.655867,-5.64561)">
<stop offset="0" style="stop-color:rgb(0%,0%,0%);stop-opacity:0.313725;"/>
<stop offset="0.222222" style="stop-color:rgb(0%,0%,0%);stop-opacity:0.27451;"/>
<stop offset="1" style="stop-color:rgb(0%,0%,0%);stop-opacity:0;"/>
</radialGradient>
<linearGradient id="linear0" gradientUnits="userSpaceOnUse" x1="111.280739" y1="164.552521" x2="395.655518" y2="-119.822243" gradientTransform="matrix(0.0331488,-0.0331488,0.0331488,0.0331488,2.763845,19.259549)">
<stop offset="0" style="stop-color:rgb(93.72549%,32.54902%,31.372549%);stop-opacity:1;"/>
<stop offset="1" style="stop-color:rgb(89.803922%,45.098039%,45.098039%);stop-opacity:1;"/>
</linearGradient>
<linearGradient id="linear1" gradientUnits="userSpaceOnUse" x1="275.918762" y1="15.789505" x2="231.017487" y2="60.690788" gradientTransform="matrix(1,0,0,1,-96.785042,164.287018)">
<stop offset="0" style="stop-color:rgb(87.843137%,87.843137%,87.843137%);stop-opacity:1;"/>
<stop offset="1" style="stop-color:rgb(93.333333%,93.333333%,93.333333%);stop-opacity:1;"/>
</linearGradient>
<linearGradient id="linear2" gradientUnits="userSpaceOnUse" x1="278.266418" y1="18.137159" x2="233.365128" y2="63.038441" gradientTransform="matrix(1,0,0,1,-181.451706,79.620354)">
<stop offset="0" style="stop-color:rgb(87.843137%,87.843137%,87.843137%);stop-opacity:1;"/>
<stop offset="1" style="stop-color:rgb(93.333333%,93.333333%,93.333333%);stop-opacity:1;"/>
</linearGradient>
<linearGradient id="linear3" gradientUnits="userSpaceOnUse" x1="273.571106" y1="10.653612" x2="228.66983" y2="55.554893" gradientTransform="matrix(1,0,0,1,-12.118375,79.620354)">
<stop offset="0" style="stop-color:rgb(87.843137%,87.843137%,87.843137%);stop-opacity:1;"/>
<stop offset="1" style="stop-color:rgb(93.333333%,93.333333%,93.333333%);stop-opacity:1;"/>
</linearGradient>
<linearGradient id="linear4" gradientUnits="userSpaceOnUse" x1="273.571106" y1="13.441852" x2="228.66983" y2="58.343132" gradientTransform="matrix(1,0,0,1,-12.118375,248.95369)">
<stop offset="0" style="stop-color:rgb(87.843137%,87.843137%,87.843137%);stop-opacity:1;"/>
<stop offset="1" style="stop-color:rgb(93.333333%,93.333333%,93.333333%);stop-opacity:1;"/>
</linearGradient>
<linearGradient id="linear5" gradientUnits="userSpaceOnUse" x1="278.266388" y1="13.44185" x2="229.623337" y2="62.084896" gradientTransform="matrix(1,0,0,1,-181.451706,248.95369)">
<stop offset="0" style="stop-color:rgb(87.843137%,87.843137%,87.843137%);stop-opacity:1;"/>
<stop offset="1" style="stop-color:rgb(93.333333%,93.333333%,93.333333%);stop-opacity:1;"/>
</linearGradient>
</defs>
<g id="surface1">
<path style=" stroke:none;fill-rule:nonzero;fill:url(#radial0);" d="M 11.90625 21.027344 L 13.890625 21.027344 L 13.890625 20.03125 L 11.90625 20.03125 Z M 11.90625 21.027344 "/>
<path style=" stroke:none;fill-rule:nonzero;fill:url(#radial1);" d="M 11.90625 21.027344 L 9.921875 21.027344 L 9.921875 22.019531 L 11.90625 22.019531 Z M 11.90625 21.027344 "/>
<path style=" stroke:none;fill-rule:nonzero;fill:url(#radial2);" d="M 11.90625 21.027344 L 9.921875 21.027344 L 9.921875 20.03125 L 11.90625 20.03125 Z M 11.90625 21.027344 "/>
<path style=" stroke:none;fill-rule:nonzero;fill:url(#radial3);" d="M 11.90625 21.027344 L 13.890625 21.027344 L 13.890625 22.019531 L 11.90625 22.019531 Z M 11.90625 21.027344 "/>
<path style=" stroke:none;fill-rule:nonzero;fill:url(#linear0);" d="M 2.785156 10.863281 L 11.207031 2.441406 C 11.59375 2.054688 12.222656 2.054688 12.609375 2.441406 L 21.027344 10.863281 C 21.417969 11.25 21.417969 11.878906 21.027344 12.265625 L 12.609375 20.683594 C 12.222656 21.074219 11.59375 21.074219 11.207031 20.683594 L 2.785156 12.265625 C 2.398438 11.878906 2.398438 11.25 2.785156 10.863281 Z M 2.785156 10.863281 "/>
<path style="fill-rule:nonzero;fill:url(#linear1);stroke-width:3;stroke-linecap:round;stroke-linejoin:miter;stroke:rgb(12.941177%,12.941177%,12.941177%);stroke-opacity:1;stroke-miterlimit:4;" d="M 157.212913 170.264106 C 174.771054 170.264106 188.970759 184.463811 188.970759 202.021953 C 188.970759 219.580094 174.771054 233.7798 157.212913 233.7798 C 139.713691 233.72088 125.513986 219.521174 125.455066 202.021953 C 125.455066 184.463811 139.654771 170.264106 157.212913 170.264106 Z M 157.212913 170.264106 " transform="matrix(0.0331488,-0.0331488,0.0331488,0.0331488,0,10.079087)"/>
<path style="fill-rule:nonzero;fill:url(#linear2);stroke-width:3;stroke-linecap:round;stroke-linejoin:miter;stroke:rgb(12.941177%,12.941177%,12.941177%);stroke-opacity:1;stroke-miterlimit:4;" d="M 72.544961 85.596154 C 90.103103 85.596154 104.302808 99.795859 104.302808 117.354001 C 104.302808 134.912143 90.103103 149.111848 72.544961 149.111848 C 55.045739 149.052928 40.846034 134.853223 40.787114 117.354001 C 40.787114 99.795859 54.986819 85.596154 72.544961 85.596154 Z M 72.544961 85.596154 " transform="matrix(0.0331488,-0.0331488,0.0331488,0.0331488,0,10.079087)"/>
<path style="fill-rule:nonzero;fill:url(#linear3);stroke-width:3;stroke-linecap:round;stroke-linejoin:miter;stroke:rgb(12.941177%,12.941177%,12.941177%);stroke-opacity:1;stroke-miterlimit:4;" d="M 241.880864 85.596154 C 259.439006 85.596154 273.638711 99.795859 273.638711 117.354001 C 273.638711 134.912143 259.439006 149.111848 241.880864 149.111848 C 224.322723 149.111848 210.123017 134.912143 210.123017 117.354001 C 210.123017 99.795859 224.322723 85.596154 241.880864 85.596154 Z M 241.880864 85.596154 " transform="matrix(0.0331488,-0.0331488,0.0331488,0.0331488,0,10.079087)"/>
<path style="fill-rule:nonzero;fill:url(#linear4);stroke-width:3;stroke-linecap:round;stroke-linejoin:miter;stroke:rgb(12.941177%,12.941177%,12.941177%);stroke-opacity:1;stroke-miterlimit:4;" d="M 241.880864 254.932057 C 259.439006 254.932057 273.638711 269.131763 273.638711 286.689904 C 273.638711 304.248046 259.439006 318.447751 241.880864 318.447751 C 224.381642 318.388831 210.181937 304.189126 210.123017 286.689904 C 210.123017 269.131763 224.322723 254.932057 241.880864 254.932057 Z M 241.880864 254.932057 " transform="matrix(0.0331488,-0.0331488,0.0331488,0.0331488,0,10.079087)"/>
<path style="fill-rule:nonzero;fill:url(#linear5);stroke-width:3;stroke-linecap:round;stroke-linejoin:miter;stroke:rgb(12.941177%,12.941177%,12.941177%);stroke-opacity:1;stroke-miterlimit:4;" d="M 72.544961 254.932057 C 90.103103 254.932057 104.302808 269.131763 104.302808 286.689904 C 104.302808 304.248046 90.103103 318.447751 72.544961 318.447751 C 55.045739 318.388831 40.846034 304.189126 40.787114 286.689904 C 40.787114 269.131763 54.986819 254.932057 72.544961 254.932057 Z M 72.544961 254.932057 " transform="matrix(0.0331488,-0.0331488,0.0331488,0.0331488,0,10.079087)"/>
<path style=" stroke:none;fill-rule:nonzero;fill:rgb(100%,100%,100%);fill-opacity:0.392157;" d="M 11.90625 2.152344 C 11.652344 2.152344 11.398438 2.246094 11.207031 2.441406 L 2.785156 10.863281 C 2.550781 11.09375 2.460938 11.414062 2.507812 11.71875 C 2.539062 11.515625 2.632812 11.324219 2.785156 11.167969 L 11.207031 2.75 C 11.59375 2.359375 12.21875 2.359375 12.609375 2.75 L 21.027344 11.167969 C 21.183594 11.324219 21.277344 11.515625 21.308594 11.71875 C 21.355469 11.414062 21.261719 11.09375 21.027344 10.863281 L 12.609375 2.441406 C 12.414062 2.246094 12.160156 2.152344 11.90625 2.152344 Z M 11.90625 2.152344 "/>
<path style=" stroke:none;fill-rule:nonzero;fill:rgb(0%,0%,0%);fill-opacity:0.235294;" d="M 11.90625 20.976562 C 11.652344 20.976562 11.398438 20.878906 11.207031 20.683594 L 2.785156 12.265625 C 2.550781 12.03125 2.460938 11.710938 2.507812 11.410156 C 2.539062 11.609375 2.632812 11.800781 2.785156 11.957031 L 11.207031 20.375 C 11.59375 20.765625 12.21875 20.765625 12.609375 20.375 L 21.027344 11.957031 C 21.183594 11.800781 21.277344 11.609375 21.308594 11.410156 C 21.355469 11.710938 21.261719 12.03125 21.027344 12.265625 L 12.609375 20.683594 C 12.414062 20.878906 12.160156 20.976562 11.90625 20.976562 Z M 11.90625 20.976562 "/>
<path style=" stroke:none;fill-rule:nonzero;fill:rgb(12.941177%,12.941177%,12.941177%);fill-opacity:1;" d="M 2.734375 10.8125 C 2.320312 11.226562 2.320312 11.898438 2.734375 12.316406 L 11.15625 20.734375 C 11.570312 21.148438 12.242188 21.148438 12.660156 20.734375 L 21.078125 12.316406 C 21.492188 11.898438 21.492188 11.226562 21.078125 10.8125 L 12.660156 2.390625 C 12.242188 1.976562 11.570312 1.976562 11.15625 2.390625 Z M 2.835938 10.910156 L 11.253906 2.492188 C 11.617188 2.128906 12.199219 2.128906 12.558594 2.492188 L 20.980469 10.910156 C 21.339844 11.273438 21.339844 11.851562 20.980469 12.214844 L 12.558594 20.636719 C 12.199219 20.996094 11.617188 20.996094 11.253906 20.636719 L 2.835938 12.214844 C 2.472656 11.851562 2.472656 11.273438 2.835938 10.910156 Z M 2.835938 10.910156 "/>
</g>
</svg>

<svg xmlns="http://www.w3.org/2000/svg" width="32" height="32" viewBox="0 0 24 24"><defs><radialGradient id="a" gradientUnits="userSpaceOnUse" cx="450.909" cy="189.579" fx="450.909" fy="189.579" r="21.167" gradientTransform="matrix(0 -.0586 -.10548 0 31.656 47.696)"><stop offset="0" stop-opacity=".314"/><stop offset=".222" stop-opacity=".275"/><stop offset="1" stop-opacity="0"/></radialGradient><radialGradient id="b" gradientUnits="userSpaceOnUse" cx="450.909" cy="189.579" fx="450.909" fy="189.579" r="21.167" gradientTransform="matrix(0 .0586 .10548 0 -7.841 -5.646)"><stop offset="0" stop-opacity=".314"/><stop offset=".222" stop-opacity=".275"/><stop offset="1" stop-opacity="0"/></radialGradient><radialGradient id="c" gradientUnits="userSpaceOnUse" cx="450.909" cy="189.579" fx="450.909" fy="189.579" r="21.167" gradientTransform="matrix(0 -.0586 .10548 0 -7.841 47.696)"><stop offset="0" stop-opacity=".314"/><stop offset=".222" stop-opacity=".275"/><stop offset="1" stop-opacity="0"/></radialGradient><radialGradient id="d" gradientUnits="userSpaceOnUse" cx="450.909" cy="189.579" fx="450.909" fy="189.579" r="21.167" gradientTransform="matrix(0 .0586 -.10548 0 31.656 -5.646)"><stop offset="0" stop-opacity=".314"/><stop offset=".222" stop-opacity=".275"/><stop offset="1" stop-opacity="0"/></radialGradient><linearGradient id="e" gradientUnits="userSpaceOnUse" x1="111.281" y1="164.553" x2="395.656" y2="-119.822" gradientTransform="rotate(-45.001 24.63 6.294) scale(.04688)"><stop offset="0" stop-color="#ef5350"/><stop offset="1" stop-color="#e57373"/></linearGradient><linearGradient id="f" gradientUnits="userSpaceOnUse" x1="275.919" y1="15.79" x2="231.017" y2="60.691" gradientTransform="translate(-96.785 164.287)"><stop offset="0" stop-color="#e0e0e0"/><stop offset="1" stop-color="#eee"/></linearGradient><linearGradient id="g" gradientUnits="userSpaceOnUse" x1="278.266" y1="18.137" x2="233.365" y2="63.038" gradientTransform="translate(-181.452 79.62)"><stop offset="0" stop-color="#e0e0e0"/><stop offset="1" stop-color="#eee"/></linearGradient><linearGradient id="h" gradientUnits="userSpaceOnUse" x1="273.571" y1="10.654" x2="228.67" y2="55.555" gradientTransform="translate(-12.118 79.62)"><stop offset="0" stop-color="#e0e0e0"/><stop offset="1" stop-color="#eee"/></linearGradient><linearGradient id="i" gradientUnits="userSpaceOnUse" x1="273.571" y1="13.442" x2="228.67" y2="58.343" gradientTransform="translate(-12.118 248.954)"><stop offset="0" stop-color="#e0e0e0"/><stop offset="1" stop-color="#eee"/></linearGradient><linearGradient id="j" gradientUnits="userSpaceOnUse" x1="278.266" y1="13.442" x2="229.623" y2="62.085" gradientTransform="translate(-181.452 248.954)"><stop offset="0" stop-color="#e0e0e0"/><stop offset="1" stop-color="#eee"/></linearGradient></defs><path d="M11.906 21.027h1.985v-.996h-1.985zm0 0" fill="url(#a)"/><path d="M11.906 21.027H9.922v.993h1.984zm0 0" fill="url(#b)"/><path d="M11.906 21.027H9.922v-.996h1.984zm0 0" fill="url(#c)"/><path d="M11.906 21.027h1.985v.993h-1.985zm0 0" fill="url(#d)"/><path d="M2.785 10.863l8.422-8.422a.993.993 0 0 1 1.402 0l8.418 8.422a.986.986 0 0 1 0 1.403l-8.418 8.418a.986.986 0 0 1-1.402 0l-8.422-8.418a.993.993 0 0 1 0-1.403zm0 0" fill="url(#e)"/><path d="M157.213 170.264c17.558 0 31.758 14.2 31.758 31.758s-14.2 31.758-31.758 31.758c-17.5-.06-31.699-14.259-31.758-31.758 0-17.558 14.2-31.758 31.758-31.758zm0 0" transform="rotate(-45.001 12.167 5.04) scale(.04688)" fill="url(#f)" stroke-width="3" stroke-linecap="round" stroke="#212121"/><path d="M72.545 85.596c17.558 0 31.758 14.2 31.758 31.758s-14.2 31.758-31.758 31.758c-17.5-.06-31.699-14.259-31.758-31.758 0-17.558 14.2-31.758 31.758-31.758zm0 0" transform="rotate(-45.001 12.167 5.04) scale(.04688)" fill="url(#g)" stroke-width="3" stroke-linecap="round" stroke="#212121"/><path d="M241.88 85.596c17.559 0 31.759 14.2 31.759 31.758s-14.2 31.758-31.758 31.758-31.758-14.2-31.758-31.758 14.2-31.758 31.758-31.758zm0 0" transform="rotate(-45.001 12.167 5.04) scale(.04688)" fill="url(#h)" stroke-width="3" stroke-linecap="round" stroke="#212121"/><path d="M241.88 254.932c17.559 0 31.759 14.2 31.759 31.758s-14.2 31.758-31.758 31.758c-17.5-.06-31.7-14.259-31.758-31.758 0-17.558 14.2-31.758 31.758-31.758zm0 0" transform="rotate(-45.001 12.167 5.04) scale(.04688)" fill="url(#i)" stroke-width="3" stroke-linecap="round" stroke="#212121"/><path d="M72.545 254.932c17.558 0 31.758 14.2 31.758 31.758s-14.2 31.758-31.758 31.758c-17.5-.06-31.699-14.259-31.758-31.758 0-17.558 14.2-31.758 31.758-31.758zm0 0" transform="rotate(-45.001 12.167 5.04) scale(.04688)" fill="url(#j)" stroke-width="3" stroke-linecap="round" stroke="#212121"/><path d="M11.906 2.152a.972.972 0 0 0-.699.29l-8.422 8.421a.983.983 0 0 0-.277.856c.031-.203.125-.395.277-.551l8.422-8.418a.986.986 0 0 1 1.402 0l8.418 8.418c.157.156.25.348.282.55a.985.985 0 0 0-.282-.855L12.61 2.441a.987.987 0 0 0-.703-.289zm0 0" fill="#fff" fill-opacity=".392"/><path d="M11.906 20.977a.976.976 0 0 1-.699-.293l-8.422-8.418a.99.99 0 0 1-.277-.856c.031.2.125.39.277.547l8.422 8.418a.986.986 0 0 0 1.402 0l8.418-8.418a.988.988 0 0 0 .282-.547.992.992 0 0 1-.282.856l-8.418 8.418a.991.991 0 0 1-.703.293zm0 0" fill-opacity=".235"/><path d="M2.734 10.813a1.066 1.066 0 0 0 0 1.503l8.422 8.418a1.066 1.066 0 0 0 1.504 0l8.418-8.418a1.066 1.066 0 0 0 0-1.504L12.66 2.392a1.066 1.066 0 0 0-1.504 0zm.102.097l8.418-8.418a.917.917 0 0 1 1.305 0l8.421 8.418c.36.363.36.942 0 1.305l-8.421 8.422a.924.924 0 0 1-1.305 0l-8.418-8.422a.917.917 0 0 1 0-1.305zm0 0" fill="#212121"/></svg>
